X:374
T:Hunting the Goose
M:C|
C:© Paul Gitlitz,  2014
K:A
"A"Acea "F#m"fecB|"A"Acea "F#m"fecB|"A"Acea "F#m"fecd|"Bm"f2B2 BdcB|!
"A"Acea "F#m"fecB|"A"Acea "F#m"fecB|"A"Acea "Bm"fdBG|1"A"AcBc "E7"AEFG:|2"A"AcBc ADED|!
|:["F#m"F2A2][F2A2][F2A2]ED|["A"E2A2][E2A2][E2A2]DC|"Bm"B,CDF "E"EDCB,|"A"A,B,CF "E"E2DE|!
["F#m"F2A2][F2A2][F2A2]ED|["A"E2A2][E2A2][E2A2]DC|"Bm"B,A,B,C "E"DECB,|1"A"A,4 zA,CE:|2"A"A,6|]
